X:1
T: Sir John Henderson
C:
R:Jig
Q:180
K:G
M:6/8
L:1/16
c2|B4G2 G2B2G2|d2B2G2 B2c2d2|e2f2g2 d2B2d2|e2c2A2 A4c2|B4G2 G2B2G2|d2B2G2 B2c2d2|e2f2g2 d2B2g2|d2B2G2 G4d2|
g2d2g2 g2b2g2|g2b2g2 a2f2d2|e2f2g2 d2B2d2|e2c2A2 A4f2|g2d2g2 g2b2g2|g2b2g2 a2f2e2|e2f2g2 d2B2g2|d2B2G2 G4d2|
g2d2g2 g2b2g2|g2b2g2 a2f2d2|e2f2g2 d2B2d2|e2c2A2 A4f2|g2d2g2 b2a2g2|f2e2d2 a2f2d2|e2f2g2 d2B2g2|d2B2G2 G4c2|
B4G2 G2B2G2|d2B2G2 B2c2d2|e2f2g2 d2B2d2|e2c2A2 A4c2|B4G2 G2B2G2|d2B2G2 B2c2d2|e2f2g2 d2B2g2|d2B2G2 G4:|
